!!!!SEGMENT: pl-wn--mus-iii-105-719-1--001-015_zelenski-wladyslaw--25-preludyi-op-38-15-andante-con-moto-na-temat-wzlobie-lezy.krn
!!!cenid: 18xx:3748
!!!COM: Żeleński, Władysław
!!!COM-rismID: pe41024455
!!!CDT: 1837/07/06-1921/01/23
!!!CNT: Polish
!!!GTL: 25 preludyi op. 38
!!!OTL: 15. Andante con moto. „Na temat Wżłobie leży”
!!!OMV: 015
!!!PDT: 1881
!!!AGN:
!!!YEC: Copyright 2022 Narodowy Instytut Fryderyka Chopina (https://polishscores.org)
!!!YEM: License CC-BY-4.0 (https://creativecommons.org/licenses/by/4.0)
!!!SMS-siglum: PL-Wn
!!!SMS-shelfmark: Mus.III.105.719/1
!!!SMS-shelfwork: 001-015 G
!!!SMS-variant:
!!!SMS-altvar:
!!!NIFC-rismSourceID:
!!!NIFC-rismChildID:
!!!NIFC-islandoraID: none
!!!URL-pdf-islandora:
!!!URL-scan: https://polona2.pl/item/25-preludyi-2-3-i-4-glosowych-na-organ-lub-fisharmonike-do-uzytku-organistow-i,ODE1NjEwMzc/2 @EN{Scan on Polona} @PL{Skany w portalu Polona}
!!!IIIF: https://polona2.pl/iiif/item/ODE1NjEwMzc/manifest.json
!!!ONB-nifc:
!!!AIN: 1 organ
!!!key: B-
!!!OMD: 15. Andante con moto. Na temat „WŻłobie leży‟
**kern	**fing	**kern	**dynam	**fing
*part1	*	*part1	*	*
*staff2	*	*staff1	*	*
*	*	*ICklav	*	*
*	*	*Iorgan	*	*
*	*	*I"[Organ]	*	*
*	*	*I'	*	*
*clefF4	*	*clefG2	*	*
*k[b-e-]	*	*k[b-e-]	*	*
*B-:	*	*B-:	*	*
*M3/4	*	*M3/4	*	*
=1	=1	=1	=1	=1
*xywh-#22:596,428,5274,984	*	*xywh-#22:596,428,5274,984	*	*
*	*^	*	*	*^
!	!	!	!LO:TX:t=Volksweise.	!LO:DY:rj	!	!
!	!	!	!LO:TX:b:t=dolce:i	!	!	!
([2.BB-/	3	.	8r	p	.	.
.	.	.	(8f/	.	.	.
.	.	.	4d/ 4b-	.	4	1
.	.	.	4f/ 4dd	.	5	2
=2	=2	=2	=2	=2	=2	=2
*	*	*	*^	*	*	*
2.BB-/_	.	.	8en/L 8cc	8ryy	.	5	1
.	.	.	8g/J 8b-	8ryy	.	4	2
.	.	.	4cc/	8a\L	.	5_4	3
.	.	.	.	8f\	.	.	1
.	.	.	4ee-X/	8g\	.	5	2
.	.	.	.	8a\J	.	.	1
=3	=3	=3	=3	=3	=3	=3	=3
8BB-/L]	.	.	8dd/L	4.b-\	<	3	2
8C/J	.	.	8ee-/J	.	.	4	.
4D\	.	.	4.ff/	.	.	5	.
.	.	.	.	8a\	.	.	2
4E-\	2	.	.	4g\	.	.	1
.	.	.	8ee-/	.	.	.	.
=4	=4	=4	=4	=4	=4	=4	=4
8F\L	.	1	8f/L 8dd	4ryy	[	5	1
8F#X\	.	4	8e-/J 8cc	.	.	5	2
8G\	.	3	8b-/L	4d\)	.	4	1
8B-\J	.	2	8g/	.	>	5	.
4A\	.	1	8f/	4c#X\	.	4	2
.	.	.	8en/J	.	]]	3	.
=5	=5	=5	=5	=5	=5	=5	=5
!	!	!	!LO:TX:a:Bi:t=1.):Tu można użyć drugiej klawiatury w prawej ręce ale z bardzo łagodnemi głosami. / Hier kann das zweite Manual in der rechten Hand, doch mit sehr zarten Stimmen benutzt werden.:footnote	!	!	!	!
[2.D\)	.	5	8f/L	8d\	pp	4	1
.	.	.	16r	8rc	.	.	.
.	.	.	(16a/Jk	.	.	2	.
.	.	.	4f/ 4dd	4ryy	.	.	.
.	.	.	4a\ 4ff	4ryy	.	.	.
=6	=6	=6	=6	=6	=6	=6	=6
2.D\_	.	.	8een/L	8g\L	.	5	1
.	.	.	8dd/J	8b-\J	.	4	2
.	.	.	8cc#X/L	4a\	.	3	.
.	.	.	8dd/J	.	.	4	.
.	.	.	4ee/	([4g\	.	5	1
=7	=7	=7	=7	=7	=7	=7	=7
!	!	!	!LO:N:vis=8	!	!	!	!
2.D\_	.	.	8.a/L)	4g\]	.	2	.
.	.	.	(16a/Jk	.	.	.	.
.	.	.	4dd/	4f\	.	4	1
.	.	.	4ff/	4a\	.	.	.
=8	=8	=8	=8	=8	=8	=8	=8
8D\L]	.	.	(8een/L)	[2.g\)	.	4	1
(8F\	.	1	8dd/	.	.	4	.
8En\	.	2	8cc#X/	.	.	.	.
8D\	.	3	8dd/J	.	.	.	.
8C#X\	.	4	4ee/	.	.	.	.
8E\J	.	1	.	.	.	.	.
=9	=9	=9	=9	=9	=9	=9	=9
4D\	.	2	8a/L)	8g\]	<	3	.
.	.	.	16r	8rc	.	.	.
!	!	!	!LO:TX:a:Bi:t=2.):na pierwszej klawiaturze. / Erstes Manual.:footnote	!	!	!	!
.	.	.	(16a/Jk	.	.	.	1
4AA/	.	.	4.cc/	8f\L	.	.	.
.	.	.	.	8en\J	.	.	2
4BB-/	.	.	.	4d\	.	.	1
.	.	.	8b-/	.	[[	.	.
=10	=10	=10	=10	=10	=10	=10	=10
8.C/L)	.	.	8c/L 8a	4ryy	mf	.	.
.	.	.	8B-/J 8g	.	.	.	.
(16C/Jk	.	5	.	.	.	.	.
4F\	.	2	4.f/)	4A\	.	.	.
4A\	.	1	.	4c#X\	.	.	2
.	.	.	(8f/	.	.	3	.
=11	=11	=11	=11	=11	=11	=11	=11
!!linebreak:original
*xywh-#22:646,1317,5268,763	*	*	*xywh-#22:646,1317,5268,763	*xywh-#22:646,1317,5268,763	*	*	*
8G\L	.	3	4.b-/)	(4d\	.	.	1
8F\J	.	4	.	.	.	.	.
4G\	.	3	.	4e-X\	.	.	2
.	.	.	(8b-/	.	.	.	.
4B-\	.	2	8a/L	4en\	<	.	1
.	.	.	8g/J	.	.	.	.
=12	=12	=12	=12	=12	=12	=12	=12
8A\L	.	3	4cc/	4f\	.	5	2-1
8B-\J	.	.	.	.	.	.	.
4.c\	.	.	8b-/L	4f#X\	.	4	2
.	.	.	8a/J	.	.	3	.
.	.	.	4dd/	4g\	[	5	1
8B-\	.	.	.	.	.	.	.
=13	=13	=13	=13	=13	=13	=13	=13
8A\L	.	.	4cc#X/	8f\L	.	.	2
8G\	.	1	.	8en\	.	.	1
8F\	.	.	8dd/L)	8d\	>	.	1
8E-\	.	.	(8g/	8c#X\J	.	5	2
8D\	.	.	8f#X/	[4cn\)	]	4	1
8F#X\J	.	.	8a/J	.	.	.	.
=14	=14	=14	=14	=14	=14	=14	=14
(4G\)	.	.	8d/L)	8c\]	pp	3	.
.	.	.	16r	8rB	.	.	.
!	!	!	!LO:TX:a:Bi:t=3.):jak przy 1) / Wie bei 1.):footnote	!	!	!	!
.	.	.	16d/Jk	.	.	2	.
[2GG/)	.	.	(>4B-/ 4g	4ryy	.	4	1
.	.	.	4d/ 4b-	4ryy	.	5	2
=15	=15	=15	=15	=15	=15	=15	=15
(4GG/]	.	.	8a/L	8c\L	.	.	.
.	.	.	8g/	8e-\J	.	.	.
[2G\)	.	.	8f#X/	4d\	.	.	.
.	.	.	8g/J	.	.	.	.
.	.	.	4a/	[4c\	.	.	.
=16	=16	=16	=16	=16	=16	=16	=16
(4G\]	.	.	8d/L)	8c\]	.	.	.
.	.	.	16r	8rB	.	.	.
!	!	!	!LO:TX:a:Bi:t=4.):Na pierwszej klawiaturze wzmocnionej głosami 4 stopowemi. / Erstes Manual durch 4 Fussstimmen verstarkt:footnote	!	!	!	!
.	.	.	(16d/Jk	.	.	.	.
8GG/)	.	.	4B-/ 4g	4ryy	.	.	.
8r	.	.	.	.	.	.	.
4r	.	.	4d/ 4b-	4ryy	.	.	.
*	*	*	*v	*v	*	*	*
=17	=17	=17	=17	=17	=17	=17
*^	*	*	*	*	*	*
(2.e-/	8r	2	.	8cc/L	.	4	.
.	(>8d\L	.	1	8b-/	.	.	.
.	8c\	.	3	8a/	.	.	.
.	8B-\J	.	4	8b-/	.	.	.
.	4A\	.	.	8cc/	.	.	.
.	.	.	.	8f/J	.	.	.
=18	=18	=18	=18	=18	=18	=18	=18
4e-/	2B-\)	.	3	8.ff/L)	f	.	.
.	.	.	.	(16ff/Jk	.	4	.
4d/	.	1	.	4ff'/	.	3	.
4c/	4A-X\	2	4	4ff'/)	.	2	.
=19	=19	=19	=19	=19	=19	=19	=19
4Bn/)	4G\	3	5	(8gg\L	.	5	.
.	.	.	.	8ff\	.	.	.
(8g/L	4B\	2	5	8ee-\	.	.	.
8f/	.	1	.	8dd\J	.	.	.
8e-/	8c\L	2	4	[4ee-\	.	.	.
8d/J	8B-X\J	1	3	.	.	.	.
*v	*v	*	*	*	*	*	*
=20	=20	=20	=20	=20	=20	=20
4.A\ 4.c	4 2	.	8.ee-\L])	.	.	.
.	.	.	16ee-'\Jk	.	4	.
.	.	.	4ee-'\	.	3	.
8B-\ 8d	3 1	.	.	.	.	.
8A\L 8c	3 1	.	4ee-'\	.	2	.
8G\J 8B-	4 2	.	.	.	.	.
=21	=21	=21	=21	=21	=21	=21
*^	*	*	*	*	*	*
4F\) 4A	4ryy	.	3 5	8ff\L	.	4	.
.	.	.	.	8ee-\	.	3	.
(8f/L	4A\	1	5	8dd\	.	2	.
8e-/J	.	2	3	8cc\J	.	1	.
[4d/	8B-\L	1	4	4dd\	.	5	.
.	8A\J	.	.	.	.	.	.
=22	=22	=22	=22	=22	=22	=22	=22
!!linebreak:original
*xywh-#22:678,1904,5116,776	*xywh-#22:678,1904,5116,776	*	*	*xywh-#22:678,1904,5116,776	*	*	*
4.d/]	8G\L	.	5	8b-/L	.	3	.
.	8F\J	.	4	8a/J	.	.	.
.	2E-\	.	5	4g/	.	.	.
8Bn/	.	2	.	.	.	.	.
8c/L	.	1	.	4ee-\	.	.	.
8B-X/J	.	2	.	.	.	.	.
*v	*v	*	*	*	*	*	*
=23	=23	=23	=23	=23	=23	=23
4F\ 4A	3 1	.	8dd\L	.	.	.
.	.	.	8cc\	.	.	.
8BB-\) 8B-	5 1	.	8b-\	.	.	.
!	!	!	!LO:TX:a:Bi:t=5.):Obie ręce na drugiej klawiaturze, w pierwszej zaś klawiaturze zamknąć głosy 4 stopowe. / Beide Hande auf dem zweiten Manual, zum ersten Manual die 4 Fussstimmen stopfen.:footnote	!	!	!
8r	.	.	(8cc\	>	1	.
4r	.	.	8dd\	.	.	.
.	.	.	8ee-\J	]]	.	.
*clefG2	*	*	*	*	*	*
=24	=24	=24	=24	=24	=24	=24
*	*	*	*^	*	*	*
!	!	!	!	!	!LO:DY:t=pp e molto tranquillo	!	!
4r	.	.	8.ff/L)	4r	pp	.	.
.	.	.	(16ff/Jk	.	.	3	.
(4b-\	2	.	4ff/	4dd-X\	.	2 4	.
4a-X/	3	.	4ff/	4cc\	.	1 4	.
=25	=25	=25	=25	=25	=25	=25	=25
4g-X/)	.	4	8gg-X/L	[2b-\	.	5	2
.	.	.	8ff/	.	.	5	.
([2c/	.	.	8ee-/	.	.	4	.
.	.	.	8dd/J	.	.	3	.
.	.	.	[4ee-/	8b-\L]	.	4	.
.	.	.	.	8g\J	.	.	.
=26	=26	=26	=26	=26	=26	=26	=26
4c/]	.	.	8.ee-/L)]	8a-X\	.	.	.
.	.	.	.	8r	.	.	.
.	.	.	(16ee-/Jk	.	.	.	.
8e-/L	.	2	4ee-/	(8cc\L	.	4	2
8d-X/	.	3	.	8b-\	.	.	1
8c/	.	1	4ee-/	8a-\	.	5	2
8B-/J	.	2	.	8g-X\J	.	.	1
*clefF4	*	*	*	*	*	*	*
=27	=27	=27	=27	=27	=27	=27	=27
4A-X\)	.	3	8ff/L	4f\	.	5	1
.	.	.	8ee-/	.	.	4	.
(4F\	.	5	8dd-X/	[4a-X\	.	3	2
.	.	.	8cc/J	.	.	4	.
[4B-\	.	2	[4dd-/	8a-\L]	.	5	.
.	.	.	.	8f\J	.	.	1
=28	=28	=28	=28	=28	=28	=28	=28
8B-\L]	.	.	8dd-/L]	4.g-X\)	.	.	2
8A\J	.	.	8cc/J	.	.	5	.
4.G-X\)	.	.	4b-/	.	.	4	.
.	.	.	.	(8f\	<	.	2
.	.	.	[4ee-/	4e-\	.	5	1
(8d-X\	.	1	.	.	.	.	.
=29	=29	=29	=29	=29	=29	=29	=29
8c\L	.	.	8ee-/L])	4.a-X\)	.	.	.
8B-\J	.	.	(8dd-X/J	.	.	4	.
4.A-X\)	.	.	4cc/	.	.	3	.
.	.	.	.	(8g-X\	.	.	1
.	.	.	[4ff/	4f\	.	.	1
(8e-\	.	1	.	.	.	.	.
=30	=30	=30	=30	=30	=30	=30	=30
8d-X\L	.	.	8ff/L])	4.b-\)	.	.	2
8c\J	.	.	(8ee-/J	.	.	4	.
4.B-\)	.	.	4dd-X/	.	.	.	.
.	.	.	.	(8a-X\	[	.	.
.	.	.	4gg-X/	[4g-X\	.	.	.
(8f\	.	.	.	.	.	.	.
=31	=31	=31	=31	=31	=31	=31	=31
4e-\	.	.	4.cc-X/)	4g-\]	.	2	.
4d-X\)	.	.	.	[2f\)	.	.	.
.	.	.	(8b-/	.	.	3	.
(4D-X\	.	5	8cc-/L	.	.	.	.
.	.	.	8dd-X/J	.	.	.	.
=32	=32	=32	=32	=32	=32	=32	=32
!!linebreak:original
*xywh-#22:602,2579,5306,1747	*	*	*xywh-#22:602,2579,5306,1747	*xywh-#22:602,2579,5306,1747	*	*	*
2G-X\)	.	.	4.b-/	8f\L]	.	4	.
.	.	.	.	(8d\J	.	.	1
.	.	.	.	4e-\	.	.	2
.	.	.	8a/	.	.	3	.
(>4C/	.	5	8b-/L	4en\	.	4	1
.	.	.	8cc/J	.	.	5	.
=33	=33	=33	=33	=33	=33	=33	=33
*^	*	*	*	*	*	*	*
!	!	!	!	!LO:TX:b:t=dolce:i	!	!	!	!
4ryy	[2.F\)	.	.	8f/L))	8f\	.	2	.
.	.	.	2_5	16r	8rc	.	.	.
!	!	!	!	!LO:TX:a:Bi:t=6.):Na pierwszej klawiaturze. / Erstes Manual.:footnote	!	!	!	!
.	.	.	.	(16f/Jk	.	.	.	.
8ryy	.	.	.	4b-/	4ryy	.	.	2
8d/L	.	1	.	.	.	.	.	.
8c/	.	2	.	4dd/	4ryy	.	.	4
8B-/J	.	3	.	.	.	.	.	.
*	*	*	*	*v	*v	*	*	*
=34	=34	=34	=34	=34	=34	=34	=34
8A/L	2.F\_	1	.	8.cc\L	.	3	.
8G/	.	2	.	.	.	.	.
.	.	.	.	16b-\Jk	.	.	.
8A/	.	1	.	4cc\	.	.	.
8F/	.	5	.	.	.	.	.
8G/	.	4	.	4ee-\	.	.	.
8A/J	.	1	.	.	.	.	.
=35	=35	=35	=35	=35	=35	=35	=35
!LO:TX:a:t=P:problem=mixed beam	!	!	!	!	!	!	!
8B-/L	2.F\_	3	.	8dd\L	.	3	.
8c/	.	2	.	8ee-\J	.	.	.
8d/	.	1	.	4.ff\	.	.	.
!	!	!	!	!	!LO:HP:a=2	!	!
8a-X>\	.	2	.	.	<	.	.
8g>\	.	1	.	.	.	.	.
8g-X>\J	.	1	.	8ee-/	.	4	.
=36	=36	=36	=36	=36	=36	=36	=36
8f>\L	4.F\]	1	.	8dd/L	.	3	.
8e->\	.	2	.	8cc/J	.	1	.
8d>\	.	1	.	8b-/)	[	2	.
!	!	!	!	!LO:TX:a:Bi:t=7.):Na dwóch klawiaturach; pierwszą należy trochę wzmocnić; pedałem można tu znacznie ułatwić wykonanie ustępu trochę trudniejszego. / Beide Manuale, das erste etwas starker; das Pedal kann hier die Aus fuhrung der etwas schwierigeren Stelle bedeudend erleichtern.:footnote	!	!	!
(8c/	8r	2	.	8r	[ >	.	.
8B-/	4r	3	.	4r	.	.	.
8G/J	.	1	.	.	]]	.	.
=37	=37	=37	=37	=37	=37	=37	=37
8.F/L)	[2.BB-\	.	.	8r	p	.	.
.	.	.	.	(>8dd/L	.	5	.
(<16F/Jk	.	2	.	.	.	.	.
4B-/	.	1	.	8cc/	.	4	.
.	.	.	.	8b-/	.	3	.
!LO:TX:t=P:problem=klamra łącząca 4d>\ i 8a/	!	!	!	!	!	!	!
4d>\	.	.	.	8a/	.	4	.
.	.	.	.	8g/J)	.	3	.
=38	=38	=38	=38	=38	=38	=38	=38
8c/L)	2.BB-\_	1	.	8r	.	.	.
16rB	.	.	.	(8ee-/L	.	4	.
(<16B-/Jk	.	1	.	.	.	.	.
!LO:TX:t=P:problem=klamra łącząca 4c/ i 8cc/	!	!	!	!	!LO:HP:t=poco cresc.	!	!
(<4c/	.	.	.	8cc/	<	5	.
.	.	.	.	8b-/	.	4	.
4e->\	.	.	.	8a/	.	5	2
.	.	.	.	8g/J	.	4	.
*v	*v	*	*	*	*	*	*
=39	=39	=39	=39	=39	=39	=39
*	*	*	*^	*	*	*
2.BB-\_	.	.	8f/L	8.d\L	.	3	1
.	.	.	8cc/	.	.	5	.
.	.	.	.	16e-\Jk	.	.	2
.	.	.	8b-/	4.f\	<	4	1
.	.	.	8a-X/J	.	.	3	.
.	.	.	4g/	.	.	4	.
.	.	.	.	8e-\	.	.	2
*	*	*	*v	*v	*	*	*
=40	=40	=40	=40	=40	=40	=40
*^	*	*	*	*	*	*
8d>\L	4BB-\]	1	.	4f/	.	3	.
8c>\)	.	2	.	.	.	.	.
8B-/	(4D\	1	3_5	4f#X/	.	4	.
8A/	.	1	.	.	.	.	.
8G/	4E-\	2	4	8g/L	.	1	.
8F#X/J	.	3	.	8a/J	.	.	.
=41	=41	=41	=41	=41	=41	=41	=41
8d/L	2D\	1	.	8b-/L	.	.	.
8c/	.	1	.	8cc/	.	.	.
8B-/	.	2	.	8dd/	.	.	.
8A/	.	1	.	8f#X/	.	.	2
8G/	[4E-\	2	3_5	8g/	.	.	1
8F#X/J	.	3	.	8a/J	.	.	3
=42	=42	=42	=42	=42	=42	=42	=42
8G/L	2.E-\]	2	.	2b-\	[[	4	.
8A/	.	1	.	.	.	.	.
8B-/	.	2	.	.	.	.	.
8A/	.	1	.	.	.	.	.
!	!	!	!	!	!LO:HP:b=1	!	!
8B-/	.	2	.	4g/	>	.	.
8c/J	.	1	.	.	.	.	.
*v	*v	*	*	*	*	*	*
=43	=43	=43	=43	=43	=43	=43
*	*	*	*^	*	*	*
2.BB-/);	.	.	2.b-/);	2.d\	]	.	.
*	*	*	*v	*v	*	*	*
*	*v	*v	*	*	*	*
*	*	*	*	*v	*v
==	==	==	==	==
*-	*-	*-	*-	*-
!!!system-decoration: {(s1,s2)}
!!!RDF**kern: > = above
!!!RDF**kern: < = below
!!!ENC: Berenika Jozajtis
!!!END: 2022-03-11
!!!ENC: Krzysztof Stępień
!!!END: 2022-03-16
!!!ENC-iiif: Jan Barakat
!!!END-iiif: 2022-08-31
